extensions/rtl/assets/airplane-svg.svg

<svg width="68" height="68" viewBox="0 0 68 68" fill="none" xmlns="http://www.w3.org/2000/svg">
<path d="M0.5 34C0.5 15.4985 15.4985 0.5 34 0.5C52.5015 0.5 67.5 15.4985 67.5 34C67.5 52.5015 52.5015 67.5 34 67.5C15.4985 67.5 0.5 52.5015 0.5 34Z" stroke="#C6C6C6"/>
<path d="M31 30.25L23.913 22.7134C23.2856 22.0367 23.386 21.5424 24.1259 21.1144C25.5168 20.3099 26.6003 20.288 28.0664 21.0926L35.4235 25.1301C35.9473 25.4175 36.4609 25.7088 37 25.8678" stroke="#0D0D0D" stroke-width="1.5" stroke-linecap="round" stroke-linejoin="round"/>
<path d="M34.75 36.4948L37.9155 46.7045C38.1739 47.5382 38.629 47.6895 39.334 47.2852C40.6594 46.5252 41.1937 45.6475 41.2296 44.066L41.4093 36.1297C41.4333 35.0696 41.4289 34.0322 42.25 33.25" stroke="#0D0D0D" stroke-width="1.5" stroke-linecap="round" stroke-linejoin="round"/>
<path d="M28.4927 32.4764L31.3231 30.4083L37.9566 25.572L37.9624 25.5677L37.9737 25.5595C38.1303 25.4449 40.4641 23.7435 41.7879 23.1637C43.4148 22.451 44.9304 22.7823 46.5609 23.2377C47.4043 23.4732 47.826 23.591 48.1303 23.8107C48.613 24.1593 48.927 24.6959 48.9915 25.2827C49.0323 25.6526 48.9247 26.0718 48.7098 26.9103C48.2941 28.5314 47.8272 29.9922 46.3882 31.0262C45.2173 31.8676 42.5568 33.0115 42.3784 33.0878L42.3657 33.0932L42.3589 33.0961L34.7976 36.3467L31.5673 37.7314C30.3961 38.2334 29.8105 38.4844 29.4121 38.9503C28.479 40.0412 28.3472 42.0157 27.999 43.3741C27.8065 44.1247 26.7512 45.4256 25.8109 45.2303C25.2303 45.1097 25.2192 44.383 25.1469 43.9196L24.4513 39.4583C24.285 38.3914 24.2722 38.3696 23.419 37.694L19.8514 34.8689C19.4808 34.5754 18.8485 34.2025 19.033 33.6461C19.3318 32.7449 21.0011 32.4935 21.7562 32.7044C23.1225 33.086 24.9212 33.9607 26.3453 33.7087C26.9533 33.6011 27.4665 33.2263 28.4927 32.4764Z" stroke="#0D0D0D" stroke-width="1.5" stroke-linecap="round" stroke-linejoin="round"/>
</svg>

<svg xmlns="http://www.w3.org/2000/svg" width="68" height="68" fill="none"><path stroke="#C6C6C6" d="M.5 34C.5 15.499 15.499.5 34 .5 52.502.5 67.5 15.499 67.5 34c0 18.502-14.998 33.5-33.5 33.5C15.499 67.5.5 52.502.5 34Z"/><path stroke="#0D0D0D" stroke-linecap="round" stroke-linejoin="round" stroke-width="1.5" d="m31 30.25-7.087-7.537c-.627-.676-.527-1.17.213-1.599 1.39-.804 2.474-.826 3.94-.021l7.357 4.037c.524.288 1.038.579 1.577.738M34.75 36.495l3.166 10.21c.258.833.713.985 1.418.58 1.325-.76 1.86-1.637 1.896-3.219l.18-7.936c.023-1.06.019-2.098.84-2.88"/><path stroke="#0D0D0D" stroke-linecap="round" stroke-linejoin="round" stroke-width="1.5" d="m28.493 32.476 2.83-2.068 6.634-4.836.005-.004.012-.009c.156-.114 2.49-1.815 3.814-2.395 1.627-.713 3.142-.382 4.773.074.843.235 1.265.353 1.57.573.482.348.796.885.86 1.472.041.37-.066.789-.281 1.627-.416 1.621-.883 3.082-2.322 4.116-1.17.842-3.831 1.985-4.01 2.062l-.012.005-.007.003-7.561 3.25-3.23 1.385c-1.172.502-1.758.753-2.156 1.22-.933 1.09-1.065 3.065-1.413 4.423-.192.75-1.248 2.052-2.188 1.856-.58-.12-.592-.847-.664-1.31l-.696-4.462c-.166-1.067-.179-1.088-1.032-1.764l-3.568-2.825c-.37-.294-1.002-.666-.818-1.223.299-.901 1.968-1.153 2.723-.942 1.366.382 3.165 1.257 4.59 1.005.607-.108 1.12-.483 2.147-1.233"/></svg>
